X:4559
T:Nancy's Fancy
O:england
M:2/4
L:1/8
K:D
dff2 | gee2 | g/2f/2e/2d/2 cd| e/2d/2e/2f/2 eA|\
dff2 | gee2 | g/2f/2e/2d/2 c/2d/2e/2c/2|ddd2:|
|:dcBA | GFED | g/2f/2e/2d/2 cd |e/2d/2e/2f/2 eA|\
dcBA | GFED | g/2f/2e/2d/2 c/2d/2e/2c/2|ddd2:|
L:1/16
|: fdfd fdfd | gege gege | gfed c2d2 | edcB Aceg |\
fdfd fdfd | gege gege | gfed cdec | d2d2 d4 :|


